resources/vectors/synology_photos.svg

<svg xmlns="http://www.w3.org/2000/svg" xml:space="preserve" viewBox="0 0 192 192"><circle cx="96" cy="96" r="88" fill="#ff837d" class="a"/><path fill="none" stroke="#fff" stroke-linecap="round" stroke-linejoin="round" stroke-width="6" d="M113.58 71.02a17.719 17.719 0 0 1-17.719 17.719A17.719 17.719 0 0 1 78.142 71.02a17.719 17.719 0 0 1 17.719-17.719A17.719 17.719 0 0 1 113.58 71.02z" class="UnoptimicedTransforms"/><path fill="#ff837d" stroke="#fff" stroke-linecap="round" stroke-linejoin="round" stroke-width="5.667" d="M103 95.867c0 3.734-3.398 7.132-7.132 7.132h0c-3.734 0-7.132-3.398-7.132-7.132s3.398-7.132 7.132-7.132h0c3.734 0 7.132 3.398 7.132 7.132z" class="UnoptimicedTransforms"/><path fill="none" stroke="#fff" stroke-linecap="round" stroke-linejoin="round" stroke-width="6" d="M135.25 83.415a17.719 17.719 0 0 1-17.719 17.72 17.719 17.719 0 0 1-17.719-17.72 17.719 17.719 0 0 1 17.719-17.719 17.719 17.719 0 0 1 17.719 17.72z" class="UnoptimicedTransforms"/><path fill="none" stroke="#fff" stroke-linecap="round" stroke-linejoin="round" stroke-width="6" d="M135.33 108.221a17.719 17.719 0 0 1-17.719 17.719 17.719 17.719 0 0 1-17.719-17.719 17.719 17.719 0 0 1 17.719-17.719 17.719 17.719 0 0 1 17.719 17.719z" class="UnoptimicedTransforms"/><path fill="none" stroke="#fff" stroke-linecap="round" stroke-linejoin="round" stroke-width="6" d="M113.99 120.979a17.719 17.719 0 0 1-17.719 17.719 17.719 17.719 0 0 1-17.719-17.719 17.719 17.719 0 0 1 17.719-17.719 17.719 17.719 0 0 1 17.719 17.719z" class="UnoptimicedTransforms"/><path fill="none" stroke="#fff" stroke-linecap="round" stroke-linejoin="round" stroke-width="6" d="M92.1 108.694a17.719 17.719 0 0 1-17.719 17.719 17.719 17.719 0 0 1-17.719-17.719 17.719 17.719 0 0 1 17.719-17.719A17.719 17.719 0 0 1 92.1 108.694z" class="UnoptimicedTransforms"/><path fill="none" stroke="#fff" stroke-linecap="round" stroke-linejoin="round" stroke-width="6" d="M92.1 82.864a17.719 17.719 0 0 1-17.719 17.719 17.719 17.719 0 0 1-17.719-17.72 17.719 17.719 0 0 1 17.719-17.718A17.719 17.719 0 0 1 92.1 82.864z" class="UnoptimicedTransforms"/></svg>

<?xml version="1.0" encoding="UTF-8" standalone="no"?>
<svg
   xml:space="preserve"
   viewBox="0 0 192 192"
   version="1.1"
   id="svg18"
   sodipodi:docname="synology_photos.svg"
   inkscape:version="1.2.2 (b0a8486541, 2022-12-01)"
   inkscape:export-filename="synology_photos.png"
   inkscape:export-xdpi="96"
   inkscape:export-ydpi="96"
   xmlns:inkscape="http://www.inkscape.org/namespaces/inkscape"
   xmlns:sodipodi="http://sodipodi.sourceforge.net/DTD/sodipodi-0.dtd"
   xmlns="http://www.w3.org/2000/svg"
   xmlns:svg="http://www.w3.org/2000/svg"><defs
     id="defs22" /><sodipodi:namedview
     id="namedview20"
     pagecolor="#505050"
     bordercolor="#eeeeee"
     borderopacity="1"
     inkscape:showpageshadow="0"
     inkscape:pageopacity="0"
     inkscape:pagecheckerboard="0"
     inkscape:deskcolor="#d1d1d1"
     showgrid="false"
     inkscape:zoom="0.61458333"
     inkscape:cx="-239.18644"
     inkscape:cy="43.118644"
     inkscape:window-width="1884"
     inkscape:window-height="1055"
     inkscape:window-x="36"
     inkscape:window-y="0"
     inkscape:window-maximized="1"
     inkscape:current-layer="svg18" /><circle
     cx="96"
     cy="96"
     r="88"
     fill="#ff837d"
     class="a"
     id="circle2" /><g
     id="g266"
     transform="matrix(0.79871331,0,0,0.79871331,19.326717,19.323922)"><path
       fill="none"
       stroke="#ffffff"
       stroke-linecap="round"
       stroke-linejoin="round"
       stroke-width="6"
       d="M 113.58,71.02 A 17.719,17.719 0 0 1 95.861,88.739 17.719,17.719 0 0 1 78.142,71.02 17.719,17.719 0 0 1 95.861,53.301 17.719,17.719 0 0 1 113.58,71.02 Z"
       class="UnoptimicedTransforms"
       id="path4" /><path
       fill="#ff837d"
       stroke="#ffffff"
       stroke-linecap="round"
       stroke-linejoin="round"
       stroke-width="5.667"
       d="m 103,95.867 c 0,3.734 -3.398,7.132 -7.132,7.132 v 0 c -3.734,0 -7.132,-3.398 -7.132,-7.132 0,-3.734 3.398,-7.132 7.132,-7.132 v 0 c 3.734,0 7.132,3.398 7.132,7.132 z"
       class="UnoptimicedTransforms"
       id="path6" /><path
       fill="none"
       stroke="#ffffff"
       stroke-linecap="round"
       stroke-linejoin="round"
       stroke-width="6"
       d="m 135.25,83.415 a 17.719,17.719 0 0 1 -17.719,17.72 17.719,17.719 0 0 1 -17.719,-17.72 17.719,17.719 0 0 1 17.719,-17.719 17.719,17.719 0 0 1 17.719,17.72 z"
       class="UnoptimicedTransforms"
       id="path8" /><path
       fill="none"
       stroke="#ffffff"
       stroke-linecap="round"
       stroke-linejoin="round"
       stroke-width="6"
       d="M 135.33,108.221 A 17.719,17.719 0 0 1 117.611,125.94 17.719,17.719 0 0 1 99.892,108.221 17.719,17.719 0 0 1 117.611,90.502 17.719,17.719 0 0 1 135.33,108.221 Z"
       class="UnoptimicedTransforms"
       id="path10" /><path
       fill="none"
       stroke="#ffffff"
       stroke-linecap="round"
       stroke-linejoin="round"
       stroke-width="6"
       d="M 113.99,120.979 A 17.719,17.719 0 0 1 96.271,138.698 17.719,17.719 0 0 1 78.552,120.979 17.719,17.719 0 0 1 96.271,103.26 17.719,17.719 0 0 1 113.99,120.979 Z"
       class="UnoptimicedTransforms"
       id="path12" /><path
       fill="none"
       stroke="#ffffff"
       stroke-linecap="round"
       stroke-linejoin="round"
       stroke-width="6"
       d="M 92.1,108.694 A 17.719,17.719 0 0 1 74.381,126.413 17.719,17.719 0 0 1 56.662,108.694 17.719,17.719 0 0 1 74.381,90.975 17.719,17.719 0 0 1 92.1,108.694 Z"
       class="UnoptimicedTransforms"
       id="path14" /><path
       fill="none"
       stroke="#ffffff"
       stroke-linecap="round"
       stroke-linejoin="round"
       stroke-width="6"
       d="M 92.1,82.864 A 17.719,17.719 0 0 1 74.381,100.583 17.719,17.719 0 0 1 56.662,82.863 17.719,17.719 0 0 1 74.381,65.145 17.719,17.719 0 0 1 92.1,82.864 Z"
       class="UnoptimicedTransforms"
       id="path16" /></g></svg>
